assets/icons/volume-mute-24.svg

<svg width="24" height="24" viewBox="0 0 24 24" fill="none" xmlns="http://www.w3.org/2000/svg">
<path fill-rule="evenodd" clip-rule="evenodd" d="M14.492 5.98853C14.492 4.37396 12.72 3.4348 11.4443 4.37324L6.97606 7.6602C6.64917 7.90067 6.25749 8.02994 5.85577 8.02994H3.89114C2.29441 8.02994 1 9.36303 1 11.0075L1 12.9925C1 14.637 2.29441 15.9701 3.89114 15.9701L5.85577 15.9701C6.25749 15.9701 6.64917 16.0993 6.97606 16.3398L11.4443 19.6268C12.72 20.5652 14.492 19.626 14.492 18.0115L14.492 5.98853ZM8.09636 9.27548L12.5646 5.98853L12.5646 18.0115L8.09636 14.7245C7.44257 14.2436 6.65921 13.985 5.85577 13.985L3.89114 13.985C3.3589 13.985 2.92743 13.5407 2.92743 12.9925V11.0075C2.92743 10.4593 3.3589 10.015 3.89114 10.015H5.85577C6.65921 10.015 7.44257 9.75643 8.09636 9.27548Z" fill="#F2F2F2"/>
<path d="M22.7177 14.5166C22.3414 14.9042 21.7312 14.9042 21.3548 14.5166L20.6734 13.8148L19.9919 14.5166C19.6156 14.9042 19.0054 14.9042 18.629 14.5166C18.2527 14.129 18.2527 13.5006 18.629 13.113L19.3105 12.4111L18.629 11.7093C18.2527 11.3217 18.2527 10.6933 18.629 10.3057C19.0054 9.91807 19.6156 9.91807 19.9919 10.3057L20.6734 11.0075L21.3548 10.3057C21.7312 9.91813 22.3414 9.91813 22.7177 10.3057C23.0941 10.6933 23.0941 11.3218 22.7177 11.7094L22.0363 12.4111L22.7177 13.1129C23.0941 13.5005 23.0941 14.129 22.7177 14.5166Z" fill="#F2F2F2"/>
</svg>

<svg xmlns="http://www.w3.org/2000/svg" width="24" height="24" viewBox="0 0 24 24"><path fill-rule="evenodd" d="M14.492 5.989c0-1.615-1.772-2.554-3.048-1.616L6.976 7.66a1.89 1.89 0 01-1.12.37H3.89C2.294 8.03 1 9.363 1 11.008v1.985c0 1.644 1.294 2.977 2.891 2.977h1.965c.401 0 .793.13 1.12.37l4.468 3.287c1.276.938 3.048-.001 3.048-1.615V5.989zM8.096 9.275l4.469-3.286v12.023l-4.469-3.287a3.78 3.78 0 00-2.24-.74H3.89c-.532 0-.964-.444-.964-.992v-1.986c0-.548.432-.992.964-.992h1.965a3.78 3.78 0 002.24-.74z"/><path d="M22.718 14.517a.944.944 0 01-1.363 0l-.682-.702-.681.702a.944.944 0 01-1.363 0 1.014 1.014 0 010-1.404l.681-.702-.681-.702a1.014 1.014 0 010-1.403.944.944 0 011.363 0l.681.702.682-.702a.944.944 0 011.363 0 1.014 1.014 0 010 1.403l-.682.702.682.702a1.014 1.014 0 010 1.404z"/></svg>
